X: 83
T:King of the Fairies
M:4/4
K:Em
|:B2|"Em"EDEF GFGA|"G"B2BA GFGA|"Em"B2E2 EFGE|"D"FGFE D2B2|!
"Em"EDEF GFGA|"G"BAGB "Bm"d2dc|"Em"B2E2 "D"GFED|"Em"E6 :|!
|:B2 |"Em"e2e2 Bdef|"G"gagf "Em"e3f|"Em"e2B2 "G"BABc|"Bm"dedc "D"Bc (3dcB|!
"Em"e2B2 Bdef |"G"gagf "Em"efed|"Em"Bdeg "D"fedf|"Em"e6 ef|!
"G"g3e "D"f3d|"Em"edB^c d3e|"D"dBAF GAB^c|"Bm"dBAF GFED|!
"Em"B2E2 "G"EFGA|"D"B2e2 edef|"Em"e2B2 "D"BAGF "Em"E4"D"E2 "Em"DE :|

